X: 20651
M: 6/8
L: 1/8
K: G
V: 1 staves=3
(3(d/e/f/) |\
g2(3(d/e/f/) g2(3(d/e/f/) | g3 z.b.a | .g.f.e .d.c.B | d^c=c A2(3(e/f/g/) |\
a2(3(e/f/g/) a2(3(e/f/g/) | a3 z.b.a | gfe def | g3 z2 |]
ddd |\
e2d ddd | ^c2d ddd | .g.f.e .d.c.B | d2c ccc |\
d2c ccc | B2c ccc | fed cBA | B2"^D.C."z |]
V: 2
z |\
f2(3(A/d/e/) f2(3(A/d/e/) | f3 zgf | edc Bc[dA] | B3 z2 |]
c2B BBB | A2B BBB | edc BAG | B2A AAA |\
V: 3 clef=bass middle=d
z |\
g2z g2z | g3 zz2 | g3 g3 | d3 zz2 |\
d2z d2z | d3 zz2 | g3 d3 | [g3G3] z2 |]
z2z |\
c2d ddd | A2A AAA | g3 G3 | g2d ddd |\
d2e eee | g2e eee | e3 d3 | G2 "^D.C."z |]


